T: Waltz Of The Little Girls, The
M: 3/4
L: 1/8
K: Dmaj
F3 E DE | F2 dc BA | FG FE D/E/F | G3 F GA |B2 BA GF | E2 EF GA | BA Bc BA |[1 F2 :|[2 d2 ||c3 B AB | DF BF AF | EG EA Ec | d2 DF Ad |c2 cB AB | DF BF AF | EG EA Ec | d2 :|
